data/styles/clear/style-night/symbols/theme_park-m.svg

<svg height="24" viewBox="0 0 24 24" width="24"><g fill="none" fill-rule="evenodd" transform="translate(-2044 -1068)"><circle cx="2056" cy="1080" fill="#fff" opacity=".4" r="12"/><circle cx="2056" cy="1080" fill="#3d3d36" r="11"/><path d="m2056 1073v1.14286h2.4l-.6-.57143.6-.57143zm0 1.71429 4.2 4v1.14285s.1464.57143.9.57143.9-.57143.9-.57143v-1.14285zm0 0 .6 4v1.14285s.2976.57143 1.2.57143 1.2-.57143 1.2-.57143v-1.14285zm0 0-3 4v1.14285s.2976.57143 1.2.57143 1.2-.57143 1.2-.57143v-1.14285zm0 0-6 4v1.14285s.1464.57143.9.57143.9-.57143.9-.57143v-1.14285zm-3.6 5.71428s-.5952.57143-1.5.57143c-.129 0-.24645-.01457-.35625-.03571l-.54375 4.03571h4.2l.6-2.28571h2.4l.6 2.28571h4.2l-.54375-4.03571c-.1098.02114-.22725.03571-.35625.03571-1.0422 0-1.5-.57143-1.5-.57143s-.6888.57143-1.8.57143c-.9582 0-1.8-.57143-1.8-.57143s-.8466.57143-1.8.57143c-1.0956 0-1.8-.57143-1.8-.57143z" fill="#fff" fill-rule="nonzero" opacity=".6"/></g></svg>

<svg width="24" height="24" viewBox="0 0 24 24">
  <g fill="none" fill-rule="evenodd" transform="translate(-2044 -1068)">
    <g transform="translate(2044 1068)">
      <circle cx="12" cy="12" r="12" fill="#FFF" opacity=".4"/>
      <circle cx="12" cy="12" r="11" fill="#3D3D36"/>
    </g>
    <path fill="#FFF" fill-rule="nonzero" d="M2056,1073 L2056,1074.14286 L2058.4,1074.14286 L2057.8,1073.57143 L2058.4,1073 L2056,1073 Z M2056,1074.71429 L2060.2,1078.71429 L2060.2,1079.85714 C2060.2,1079.85714 2060.3464,1080.42857 2061.1,1080.42857 C2061.8536,1080.42857 2062,1079.85714 2062,1079.85714 L2062,1078.71429 L2056,1074.71429 Z M2056,1074.71429 L2056.6,1078.71429 L2056.6,1079.85714 C2056.6,1079.85714 2056.8976,1080.42857 2057.8,1080.42857 C2058.7024,1080.42857 2059,1079.85714 2059,1079.85714 L2059,1078.71429 L2056,1074.71429 Z M2056,1074.71429 L2053,1078.71429 L2053,1079.85714 C2053,1079.85714 2053.2976,1080.42857 2054.2,1080.42857 C2055.1024,1080.42857 2055.4,1079.85714 2055.4,1079.85714 L2055.4,1078.71429 L2056,1074.71429 Z M2056,1074.71429 L2050,1078.71429 L2050,1079.85714 C2050,1079.85714 2050.1464,1080.42857 2050.9,1080.42857 C2051.6536,1080.42857 2051.8,1079.85714 2051.8,1079.85714 L2051.8,1078.71429 L2056,1074.71429 Z M2052.4,1080.42857 C2052.4,1080.42857 2051.8048,1081 2050.9,1081 C2050.771,1081 2050.65355,1080.98543 2050.54375,1080.96429 L2050,1085 L2054.2,1085 L2054.8,1082.71429 L2057.2,1082.71429 L2057.8,1085 L2062,1085 L2061.45625,1080.96429 C2061.34645,1080.98543 2061.229,1081 2061.1,1081 C2060.0578,1081 2059.6,1080.42857 2059.6,1080.42857 C2059.6,1080.42857 2058.9112,1081 2057.8,1081 C2056.8418,1081 2056,1080.42857 2056,1080.42857 C2056,1080.42857 2055.1534,1081 2054.2,1081 C2053.1044,1081 2052.4,1080.42857 2052.4,1080.42857 Z" opacity=".6"/>
  </g>
</svg>
